packages/ffe-icons/icons/filled/md/workspaces.svg

<svg xmlns="http://www.w3.org/2000/svg" height="24" viewBox="0 -960 960 960" width="24"><path d="M240-135.386q-59.653 0-102.134-42.48Q95.386-220.347 95.386-280t42.48-102.134q42.481-42.48 102.134-42.48t102.134 42.48q42.48 42.481 42.48 102.134t-42.48 102.134q-42.481 42.48-102.134 42.48Zm480 0q-59.653 0-102.134-42.48-42.48-42.481-42.48-102.134t42.48-102.134q42.481-42.48 102.134-42.48t102.134 42.48q42.48 42.481 42.48 102.134t-42.48 102.134q-42.481 42.48-102.134 42.48Zm-240-400q-59.653 0-102.134-42.48-42.48-42.481-42.48-102.134t42.48-102.134q42.481-42.48 102.134-42.48t102.134 42.48q42.48 42.481 42.48 102.134t-42.48 102.134q-42.481 42.48-102.134 42.48Z"/></svg>

<svg xmlns="http://www.w3.org/2000/svg" height="24" viewBox="0 -960 960 960" width="24"><path d="M240-135.39q-59.65 0-102.13-42.48T95.39-280q0-59.65 42.48-102.13T240-424.61q59.65 0 102.13 42.48T384.61-280q0 59.65-42.48 102.13T240-135.39Zm480 0q-59.65 0-102.13-42.48T575.39-280q0-59.65 42.48-102.13T720-424.61q59.65 0 102.13 42.48T864.61-280q0 59.65-42.48 102.13T720-135.39Zm-240-400q-59.65 0-102.13-42.48T335.39-680q0-59.65 42.48-102.13T480-824.61q59.65 0 102.13 42.48T624.61-680q0 59.65-42.48 102.13T480-535.39Z"/></svg>
